public/assets/img/logo/favicon.svg

<svg width="512" height="512" viewBox="0 0 512 512" fill="none" xmlns="http://www.w3.org/2000/svg">
<path d="M204.882 35.268C203.229 35.2696 201.623 34.7255 200.311 33.7201C199 32.7146 198.057 31.3043 197.63 29.7081C197.202 28.1118 197.314 26.4191 197.947 24.8929C198.581 23.3667 199.701 22.0924 201.133 21.268C218.089 11.509 241.664 11.412 259.798 21.028C261.555 21.96 262.87 23.5519 263.454 25.4535C264.038 27.3551 263.842 29.4107 262.91 31.168C261.978 32.9253 260.386 34.2405 258.484 34.8241C256.583 35.4077 254.527 35.212 252.77 34.28C239.231 27.101 221.075 27.096 208.616 34.268C207.481 34.9238 206.193 35.2687 204.882 35.268Z" fill="#60D195"/>
<path d="M258.567 57.836C274.538 57.836 287.485 44.889 287.485 28.918C287.485 12.947 274.538 0 258.567 0C242.596 0 229.649 12.947 229.649 28.918C229.649 44.889 242.596 57.836 258.567 57.836Z" fill="#E85668"/>
<path d="M312.032 89.3161H216.919C216.919 77.9768 221.003 67.0168 228.424 58.4429C235.844 49.8689 246.105 44.2547 257.327 42.6281L266.739 41.2641C272.967 40.3612 278.874 37.9291 283.933 34.1853C288.991 30.4415 293.044 25.5026 295.727 19.8101C296.285 18.6256 297.153 17.614 298.239 16.8826C299.325 16.1512 300.589 15.7272 301.897 15.6554C303.204 15.5837 304.507 15.8669 305.666 16.4751C306.826 17.0832 307.8 17.9937 308.484 19.1101C314.106 28.2832 317.608 38.5969 318.733 49.297C319.857 59.9972 318.576 70.8135 314.984 80.9551L312.032 89.3161Z" fill="#F7D9A4"/>
<g opacity="0.05">
<path opacity="0.05" d="M308.489 19.1129C307.836 18.0489 306.92 17.1713 305.829 16.5652C304.738 15.959 303.509 15.6447 302.26 15.6527C301.012 15.6608 299.787 15.9909 298.704 16.6111C297.621 17.2313 296.716 18.1206 296.077 19.1929C300.778 28.033 303.59 37.7544 304.332 47.7393C305.075 57.7243 303.733 67.7546 300.391 77.1929L297.431 85.5509H217.078C216.978 86.7959 216.919 88.0509 216.919 89.3189H312.032L314.992 80.9609C318.584 70.8187 319.865 60.0017 318.74 49.301C317.615 38.6003 314.112 28.2862 308.489 19.1129Z" fill="black"/>
</g>
<path d="M350.975 124.695H185.075L187.568 112.936C189.692 102.916 194.776 93.7642 202.163 86.6678C209.549 79.5713 218.897 74.8571 228.994 73.136C254.827 68.734 281.219 68.734 307.052 73.136C317.149 74.8567 326.497 79.5708 333.884 86.6673C341.27 93.7638 346.355 102.915 348.478 112.936L350.975 124.695Z" fill="#F7D9A4"/>
<g opacity="0.05">
<path opacity="0.05" d="M348.482 112.935C346.358 102.915 341.274 93.7631 333.887 86.6667C326.501 79.5703 317.153 74.856 307.056 73.1349C302.704 72.3929 298.337 71.7799 293.956 71.2959C301.524 74.5094 308.205 79.5008 313.434 85.8467C318.662 92.1926 322.282 99.7057 323.988 107.749L326.481 119.508H186.177L185.077 124.689H350.977L348.482 112.935Z" fill="black"/>
</g>
<path d="M372.802 166.344H163.252V149.651C163.252 138.737 167.181 128.187 174.319 119.932C181.458 111.676 191.33 106.266 202.13 104.691C245.83 98.3169 290.224 98.3169 333.924 104.691C344.724 106.266 354.596 111.676 361.735 119.932C368.874 128.187 372.802 138.737 372.802 149.651V166.344Z" fill="#F7D9A4"/>
<g opacity="0.05">
<path opacity="0.05" d="M333.927 104.691C332.073 104.42 330.216 104.178 328.36 103.93C334.374 108.113 339.286 113.689 342.679 120.182C346.071 126.675 347.843 133.892 347.842 141.218V157.911H163.252V166.343H372.802V149.65C372.802 138.736 368.874 128.188 361.736 119.932C354.597 111.677 344.726 106.267 333.927 104.691Z" fill="black"/>
</g>
<path d="M168.305 136.486C164.777 136.486 161.394 137.887 158.899 140.381C156.404 142.875 155.001 146.258 155 149.786V163.124C155 230.735 168.515 297.663 194.75 359.976C202 377.196 214.334 391.792 230.103 401.814C233.226 403.799 235.798 406.54 237.58 409.783C239.361 413.027 240.295 416.668 240.295 420.368V473.737H295.76V420.373C295.76 416.673 296.694 413.032 298.476 409.789C300.257 406.545 302.829 403.804 305.952 401.819C321.721 391.797 334.055 377.201 341.305 359.981C367.541 297.668 381.055 230.74 381.055 163.129V149.791C381.054 146.264 379.652 142.882 377.158 140.388C374.664 137.894 371.282 136.492 367.755 136.491L168.305 136.486Z" fill="#9BD8EB"/>
<path d="M168.305 136.486C164.777 136.486 161.394 137.887 158.899 140.381C156.404 142.875 155.001 146.258 155 149.786V163.124C155 230.735 168.515 297.663 194.75 359.976C202 377.196 214.334 391.792 230.103 401.814C233.226 403.799 235.798 406.54 237.58 409.783C239.361 413.027 240.295 416.668 240.295 420.368V473.737H295.76V420.373C295.76 416.673 296.694 413.032 298.476 409.789C300.257 406.545 302.829 403.804 305.952 401.819C321.721 391.797 334.055 377.201 341.305 359.981C367.541 297.668 381.055 230.74 381.055 163.129V149.791C381.054 146.264 379.652 142.882 377.158 140.388C374.664 137.894 371.282 136.492 367.755 136.491L168.305 136.486Z" fill="#9BD8EB"/>
<path d="M325.098 512H210.956C205.883 512 201.017 509.985 197.43 506.397C193.842 502.81 191.827 497.944 191.827 492.871C191.827 490.359 192.322 487.871 193.283 485.551C194.244 483.23 195.653 481.121 197.43 479.345C199.206 477.568 201.315 476.159 203.636 475.198C205.956 474.237 208.444 473.742 210.956 473.742H325.097C327.609 473.742 330.097 474.236 332.418 475.198C334.739 476.159 336.847 477.568 338.624 479.344C340.4 481.121 341.809 483.229 342.771 485.55C343.732 487.871 344.227 490.359 344.227 492.871C344.227 495.383 343.732 497.871 342.771 500.191C341.81 502.512 340.401 504.621 338.624 506.397C336.848 508.174 334.739 509.583 332.418 510.544C330.098 511.505 327.61 512 325.098 512Z" fill="#9BD8EB"/>
<g opacity="0.1">
<path opacity="0.1" d="M325.098 473.743H297.366C302.439 473.743 307.305 475.758 310.892 479.346C314.48 482.933 316.495 487.799 316.495 492.872C316.495 497.945 314.48 502.811 310.892 506.398C307.305 509.986 302.439 512.001 297.366 512.001H325.098C330.171 512.001 335.037 509.986 338.624 506.398C342.212 502.811 344.227 497.945 344.227 492.872C344.227 487.799 342.212 482.933 338.624 479.346C335.037 475.758 330.171 473.743 325.098 473.743Z" fill="black"/>
</g>
<g opacity="0.05">
<path opacity="0.05" d="M268.027 203.667C261.19 203.667 254.633 206.383 249.798 211.218C244.963 216.052 242.247 222.61 242.247 229.447V303.725C242.247 310.562 244.963 317.12 249.798 321.954C254.633 326.789 261.19 329.505 268.027 329.505C274.864 329.505 281.422 326.789 286.256 321.954C291.091 317.12 293.807 310.562 293.807 303.725V229.447C293.807 222.61 291.091 216.053 286.256 211.218C281.421 206.383 274.864 203.667 268.027 203.667Z" fill="black"/>
</g>
<g opacity="0.05">
<path opacity="0.05" d="M365.455 203.667C358.618 203.667 352.061 206.383 347.226 211.218C342.391 216.052 339.675 222.61 339.675 229.447V303.725C339.675 308.513 341.008 313.205 343.525 317.278C346.043 321.35 349.645 324.641 353.927 326.781C367.078 288.203 375.532 248.182 379.106 207.581C375.015 205.018 370.283 203.662 365.455 203.667Z" fill="black"/>
</g>
<g opacity="0.05">
<path opacity="0.05" d="M170.599 203.667C165.772 203.661 161.042 205.017 156.951 207.579C160.525 248.18 168.979 288.201 182.13 326.779C186.412 324.638 190.013 321.347 192.53 317.275C195.046 313.203 196.379 308.51 196.379 303.723V229.448C196.379 226.062 195.713 222.71 194.417 219.582C193.122 216.454 191.223 213.612 188.829 211.218C186.435 208.824 183.593 206.925 180.465 205.629C177.337 204.334 173.985 203.667 170.599 203.667Z" fill="black"/>
</g>
<g opacity="0.3">
<path opacity="0.3" d="M367.748 136.486H168.305C164.777 136.486 161.394 137.887 158.899 140.381C156.404 142.875 155.001 146.258 155 149.786V163.124C155 165.76 155.028 168.395 155.069 171.024H380.987C381.028 168.39 381.056 165.755 381.056 163.124V149.791C381.055 146.262 379.653 142.878 377.157 140.383C374.662 137.887 371.277 136.486 367.748 136.486Z" fill="white"/>
</g>
<g opacity="0.1">
<path opacity="0.1" d="M367.748 136.486H337.668C341.196 136.486 344.579 137.887 347.075 140.381C349.57 142.875 350.972 146.258 350.974 149.786V163.124C350.975 230.736 337.462 297.666 311.227 359.981C303.977 377.201 291.643 391.797 275.874 401.819C272.751 403.804 270.179 406.545 268.397 409.788C266.616 413.032 265.682 416.673 265.682 420.373V452.436H240.294V473.742H295.758V420.373C295.758 416.673 296.692 413.032 298.474 409.789C300.255 406.545 302.827 403.804 305.95 401.819C321.719 391.797 334.053 377.201 341.303 359.981C367.538 297.668 381.053 230.74 381.053 163.129V149.791C381.054 148.044 380.71 146.313 380.042 144.699C379.373 143.084 378.393 141.617 377.157 140.382C375.922 139.146 374.455 138.166 372.84 137.498C371.226 136.829 369.495 136.485 367.748 136.486Z" fill="black"/>
</g>
<path d="M224.971 125.079C223.489 125.078 222.04 124.637 220.808 123.813C219.575 122.989 218.615 121.818 218.048 120.448C217.481 119.079 217.332 117.572 217.621 116.118C217.91 114.664 218.623 113.328 219.671 112.279L229.027 102.92C230.445 101.574 232.333 100.836 234.289 100.862C236.244 100.888 238.111 101.676 239.494 103.059C240.876 104.442 241.663 106.31 241.688 108.265C241.713 110.221 240.973 112.108 239.627 113.526L230.271 122.882C229.576 123.579 228.75 124.132 227.84 124.509C226.931 124.886 225.956 125.08 224.971 125.079Z" fill="#FDA354"/>
<path d="M257.989 89.9999C257.549 89.9995 257.111 89.9611 256.678 89.8849C254.719 89.5396 252.978 88.4303 251.837 86.801C250.696 85.1716 250.249 83.1558 250.594 81.1969L252.894 68.1669C253.055 67.1881 253.409 66.251 253.934 65.4098C254.46 64.5686 255.147 63.8401 255.956 63.2663C256.766 62.6926 257.681 62.2851 258.648 62.0674C259.616 61.8497 260.618 61.8261 261.594 61.9981C262.571 62.17 263.505 62.5341 264.34 63.0691C265.175 63.6042 265.896 64.2996 266.461 65.1151C267.025 65.9307 267.423 66.8502 267.629 67.8203C267.836 68.7904 267.849 69.792 267.666 70.7669L265.366 83.7969C265.061 85.5329 264.155 87.106 262.806 88.2403C261.457 89.3746 259.751 89.9976 257.989 89.9999Z" fill="white"/>
<path d="M300.373 116.108C299.388 116.109 298.413 115.915 297.504 115.537C296.594 115.159 295.768 114.606 295.073 113.908L285.717 104.552C285.008 103.858 284.444 103.031 284.058 102.118C283.671 101.205 283.469 100.224 283.464 99.2326C283.458 98.2409 283.65 97.2581 284.027 96.341C284.404 95.4238 284.959 94.5905 285.66 93.8893C286.362 93.1881 287.195 92.633 288.112 92.2559C289.029 91.8789 290.012 91.6875 291.004 91.6927C291.995 91.698 292.976 91.8999 293.889 92.2867C294.802 92.6735 295.629 93.2375 296.323 93.9461L305.679 103.302C306.727 104.351 307.44 105.687 307.729 107.141C308.018 108.595 307.869 110.102 307.302 111.471C306.735 112.841 305.775 114.012 304.542 114.836C303.31 115.66 301.862 116.101 300.379 116.102L300.373 116.108Z" fill="#F98F9D"/>
</svg>

<?xml version="1.0" encoding="UTF-8"?>
<svg xmlns="http://www.w3.org/2000/svg" fill="none" viewBox="0 0 512 512"><path d="M204.88 35.27a7.48 7.48 0 01-6.93-10.38 7.5 7.5 0 013.18-3.62c16.96-9.76 40.53-9.86 58.67-.24a7.49 7.49 0 11-7.03 13.25c-13.54-7.18-31.7-7.18-44.15-.01-1.14.65-2.43 1-3.74 1" fill="#60D195"/><path d="M258.57 57.84a28.92 28.92 0 100-57.85 28.92 28.92 0 000 57.85" fill="#E85668"/><path d="M312.03 89.32h-95.11a47.2 47.2 0 0140.41-46.69l9.41-1.37a38 38 0 0028.99-21.45 7.27 7.27 0 0112.75-.7 72 72 0 0110.25 30.19 72 72 0 01-3.75 31.66z" fill="#F7D9A4"/><path opacity="0.05" d="M308.49 19.11a7.2 7.2 0 00-6.23-3.46 7.3 7.3 0 00-6.18 3.54 72.2 72.2 0 014.31 58l-2.96 8.36h-80.35q-.16 1.87-.16 3.77h95.11l2.96-8.36a72.2 72.2 0 00-6.5-61.85" fill="black"/><path d="M350.98 124.69H185.07l2.5-11.75a51.1 51.1 0 0141.42-39.8 232 232 0 0178.06 0 51 51 0 0126.83 13.53 51 51 0 0114.6 26.27z" fill="#F7D9A4"/><path opacity="0.05" d="M348.48 112.94a51.1 51.1 0 00-41.42-39.81q-6.54-1.11-13.1-1.83a51.1 51.1 0 0130.03 36.45l2.49 11.76h-140.3l-1.1 5.18h165.9z" fill="black"/><path d="M372.8 166.34H163.25v-16.69a45.45 45.45 0 0138.88-44.96 457 457 0 01131.79 0 45.5 45.5 0 0127.82 15.24 45.5 45.5 0 0111.06 29.72z" fill="#F7D9A4"/><path opacity="0.05" d="M333.93 104.69q-2.79-.4-5.57-.76a45.4 45.4 0 0119.48 37.29v16.69H163.25v8.43H372.8v-16.69a45.5 45.5 0 00-11.06-29.72 45.5 45.5 0 00-27.81-15.24" fill="black"/><path d="M168.31 136.49a13.3 13.3 0 00-13.31 13.3v13.33a507 507 0 0039.75 196.86 91.7 91.7 0 0035.35 41.83 22 22 0 0110.19 18.56v53.37h55.47v-53.37a22 22 0 0110.19-18.55 92 92 0 0035.36-41.84 507 507 0 0039.75-196.85v-13.34a13.34 13.34 0 00-13.31-13.3z" fill="#9BD8EB"/><path d="M168.31 136.49a13.3 13.3 0 00-13.31 13.3v13.33a507 507 0 0039.75 196.86 91.7 91.7 0 0035.35 41.83 22 22 0 0110.19 18.56v53.37h55.47v-53.37a22 22 0 0110.19-18.55 92 92 0 0035.36-41.84 507 507 0 0039.75-196.85v-13.34a13.34 13.34 0 00-13.31-13.3zM325.1 512H210.96a19.12 19.12 0 01-7.32-36.8c2.32-.96 4.8-1.46 7.32-1.46H325.1a19.16 19.16 0 0119.13 19.13A19.16 19.16 0 01325.1 512" fill="#9BD8EB"/><path opacity="0.1" d="M325.1 473.74h-27.73a19 19 0 0113.52 5.61A19.1 19.1 0 01297.37 512h27.73a19.14 19.14 0 000-38.26" fill="black"/><path opacity="0.05" d="M268.03 203.67a25.75 25.75 0 00-25.78 25.78v74.28a25.74 25.74 0 0025.78 25.77 25.8 25.8 0 0025.78-25.77v-74.28a25.8 25.8 0 00-25.78-25.78m97.42 0a25.74 25.74 0 00-25.77 25.78v74.28a25.8 25.8 0 0014.25 23.05 508 508 0 0025.18-119.2 25.7 25.7 0 00-13.66-3.91m-194.85 0a25.6 25.6 0 00-13.65 3.91 508 508 0 0025.18 119.2 25.8 25.8 0 0014.25-23.06v-74.27a26 26 0 00-7.55-18.23 25.8 25.8 0 00-18.23-7.55" fill="black"/><path opacity="0.3" d="M367.75 136.49H168.31a13.3 13.3 0 00-13.31 13.3v13.33q0 3.97.07 7.9h225.92q.07-3.95.07-7.9v-13.33a13.34 13.34 0 00-13.31-13.3" fill="white"/><path opacity="0.1" d="M367.75 136.49h-30.08a13.3 13.3 0 0113.3 13.3v13.33a507 507 0 01-39.74 196.86 92 92 0 01-35.36 41.84 22 22 0 00-10.19 18.55v32.07h-25.39v21.3h55.47v-53.37a22 22 0 0110.19-18.55 91.7 91.7 0 0035.35-41.84 507 507 0 0039.75-196.85v-13.34a13.2 13.2 0 00-8.21-12.29 13 13 0 00-5.09-1.01" fill="black"/><path d="M224.97 125.08a7.4 7.4 0 01-4.16-1.27 7.4 7.4 0 01-3.19-7.69c.29-1.46 1-2.79 2.05-3.84l9.36-9.36a7.48 7.48 0 0112.66 5.35 7.6 7.6 0 01-2.06 5.26l-9.36 9.35a7.4 7.4 0 01-5.3 2.2" fill="#FDA354"/><path d="M257.99 90q-.66 0-1.31-.12a7.46 7.46 0 01-6.09-8.68l2.3-13.03q.26-1.48 1.04-2.76a7.53 7.53 0 0112.53-.29 7.6 7.6 0 011.21 5.65l-2.3 13.03a7.5 7.5 0 01-7.38 6.2" fill="white"/><path d="M300.37 116.11a7.5 7.5 0 01-5.3-2.2l-9.35-9.36a7.6 7.6 0 01-1.69-8.21 7.4 7.4 0 014.08-4.08 7.6 7.6 0 015.78.03q1.38.58 2.43 1.66l9.36 9.35a7.52 7.52 0 01-5.3 12.8z" fill="#F98F9D"/></svg>
